www/assets/icons/brunch_dining.svg

<svg xmlns="http://www.w3.org/2000/svg" width="24" height="24" viewBox="0 0 24 24" fill='currentColor'><path fill-rule="evenodd" d="M18 8h2V4h-2zm-2.49 14H2.49c-.27 0-.49-.22-.49-.5V20h14v1.5c0 .28-.22.5-.49.5M18 15.89l-.4-.42a5.85 5.85 0 0 1-1.6-4V2h6v9.51c0 1.46-.54 2.87-1.53 3.94l-.47.52V20h2v2h-4zM7 16v-2h4v2h4.5c.28 0 .5.22.5.5v1c0 .28-.22.5-.5.5h-13c-.28 0-.5-.22-.5-.5v-1c0-.28.22-.5.5-.5z" clip-rule="evenodd"/></svg>

<svg width="24" height="24" viewBox="0 0 24 24" xmlns="http://www.w3.org/2000/svg" fill='currentColor'><path fill-rule="evenodd" clip-rule="evenodd" d="M18 8H20V4H18V8ZM15.51 22H2.49C2.22 22 2 21.78 2 21.5V20H16V21.5C16 21.78 15.78 22 15.51 22ZM18 15.89L17.6 15.47C16.58 14.39 16 12.95 16 11.47V2H22V11.51C22 12.97 21.46 14.38 20.47 15.45L20 15.97V20H22V22H18V15.89ZM7 16V14H11V16H15.5C15.78 16 16 16.22 16 16.5V17.5C16 17.78 15.78 18 15.5 18H2.5C2.22 18 2 17.78 2 17.5V16.5C2 16.22 2.22 16 2.5 16H7Z"/></svg>
